app/images/like.svg

<svg width="21" height="21" viewBox="0 0 21 21" fill="none" xmlns="http://www.w3.org/2000/svg">
<path fill-rule="evenodd" clip-rule="evenodd" d="M16.9941 4.65292C16.2671 3.89929 15.3187 3.49756 14.3136 3.49756C13.3083 3.49756 12.3598 3.89923 11.6324 4.65284L10.1554 6.184L8.67854 4.65294C7.9515 3.89944 7.00265 3.49756 5.99756 3.49756C4.99244 3.49756 4.04359 3.8994 3.31668 4.65289C1.80425 6.22063 1.80451 8.79519 3.31649 10.3619L10.1554 17.4503L16.9942 10.362C18.5062 8.79535 18.5067 6.22065 16.9941 4.65292Z" stroke="black" stroke-width="0.996622"/>
</svg>

<svg width="21" height="21" fill="none" xmlns="http://www.w3.org/2000/svg"><path clip-rule="evenodd" d="M16.994 4.653a3.69 3.69 0 0 0-2.68-1.155 3.692 3.692 0 0 0-2.682 1.155l-1.477 1.531L8.68 4.653a3.692 3.692 0 0 0-2.681-1.155 3.692 3.692 0 0 0-2.681 1.155c-1.513 1.568-1.512 4.142 0 5.709l6.838 7.088 6.84-7.088c1.511-1.567 1.512-4.141 0-5.71z" stroke="#000" stroke-width=".997"/></svg>
